X: 11493
T: ALISTER McALISTER'S LAMENT
Q: "Slow."
%R: air, strathspey
B: W. Hamilton "Universal Tune-Book" Vol. 1 Glasgow 1844 p.149 #3
S: http://imslp.org/wiki/Hamilton's_Universal_Tune-Book_(Various)
Z: 2016 John Chambers <jc:trillian.mit.edu>
M: C
L: 1/8
K: G
% - - - - - - - - - - - - - - - - - - - - - - - - -
G>A |\
B3 B>A G2 Bd | e2 e>d e2 g2 |\
B2 (B>A) G2 Bd | e2 gb a2 [1 g2 |\
B2 B>A G2 Bd | e2 dB (de) g>a |
b2 (ag) e2 (ge) | (dB)(A>G) G2 :|\
[2 g>a |\
b2 (ag) e2 (ge) | d2 (eg) {b}a2 g>a |\
b2 (ag) e2 (ge) | (dB)A>G G2 |]
% - - - - - - - - - - - - - - - - - - - - - - - - -

%%sep 1 1 500
%%sep 1 1 500

